X: 28262
T: Mrs. Kelly's Fancy
R: jig
M: 6/8
K: Gmajor
Bc|:d2b age|d2B BAB|GBd edB|cBc ABc|
d2b age|d2B BAB|dcB cAF|AGF GBc:|
|:d^cd BAG|(3Bcd B GBd|e^de cBA|cec ABc|
ded BAG|(3Bcd B GBd|1 cAG FEF|DGF GBc:|2 cAG FGA|BGF GBc||
|:d^cd BAG|gfe dBd|cBc ABc|Afa gfe|
d^cd BAG|gfe dBd|cAG FGA|BGF GBc:|

